X: 82
T: Nie milcz ani odkładaj, nie cierp', Boże wieczny:
C: Mikołaj Gomółka
%%abc-version 2.0
%%abcx-abcm2ps-target-version 5.9.1 (29 Sep 2008)
%%abc-creator hum2abc beta
%%abcx-conversion-date 2021/10/04 07:59:10
%%abc-edited-by Anna Matuszewska
%%abcx-initial-encoding-date 2020-02-23
%%humdrum-veritas 418042562
%%humdrum-veritas-data 2150924405
%%linebreak <none>
%%barnumbers 0
L: 1/4
M: C|
N: Derived from pl-wn--sd-xvi-qu-273--083_gomolka-mikolaj--nie-milcz-ani-odkladaj-nie-cierp-boze-wieczny.krn
%%staves [1 2 3 4]
V: 1
V: 2 clef=alto
V: 3 clef=alto
V: 4
K: F
[V:1] B4A3A | 
[V:2] G4F3E | 
[V:3] D4D3C | 
[V:4] G,,4D,3A, [|] 
[V:1] F2GABA2G | 
[V:2] D2B,C2<D2E | 
[V:3] G,^F,G,A,B,2A,2 | 
[V:4] B,2>A,2G,F,G,2 [|] 
[V:1] A2d4c2 | 
[V:2] FGA2A2A3 | 
[V:3] F2F2E2D6 | 
[V:4] D,2>E,2F,G,^A,G, [|] 
[V:1] d2>c2B2B2 | 
[V:2] GA2G2G2 | 
[V:3] D2D2 | 
[V:4] ^F,E,F,2G,2G,,2 [|] 
[V:1] A2A2A2F2 | 
[V:2] F2E2C2D2 | 
[V:3] C2E2D2D2 | 
[V:4] D,2A,2A,2B,A, [|] 
[V:1] GAB2A2A4 | 
[V:2] B,A,2B,D2C2 | 
[V:3] EF2EDCB,2 | 
[V:4] G,F,G,2D,E,G,2 [|] 
[V:1] B2G2G4 | 
[V:2] FED2_E2E2 | 
[V:3] B,2CB,A,G,A,2 | 
[V:4] _E,2C,2D,4 [|] 
[V:1] F2G4 |]  
[V:2] D2>C2^B,4 |]  
[V:3] G,8 |]  
[V:4] G,,8 | 


